X:1
T:Title
%%score { ( 1 4 ) | ( 2 3 ) }
L:1/8
M:4/4
K:Bb
V:1 treble nm="Grand Piano"
V:4 treble 
V:2 bass 
V:3 bass 
V:1
 z4 z2 z[Q:1/4=100] [DF] | [DF]2 [EG][EA] [DB]2 [EA][FB] | c2 GA [DB]3 [Fd] | c2 Ac cdc[DFB] | %4
 [FA][GB] [=EG]>F F3 F | [Fd]2 [DB]>[EG] [DF]2 [B,D][CE] | [DF]2 [EG][EA] [DB]2 cd | %7
 e2 GA [DB]2 [DB][Fd] |[M:7/8] c2 B A [DB]3 |[M:1/4] DE |[M:4/4] F6 z2 | B2- [DB-][DB-] [EB]2 AG | %12
 [DF]2 [B,D][DF] [FB]2 [Fd]>[Fd] | c6 Bc | d6 z2 |[M:9/8] e6- e z z |[M:4/4] F2 Bd c2 BA | %17
[M:7/8] [DB]-[DB]-[DB]- [DB]3 z |] %18
V:2
 z4 z2 z [B,,B,] | [B,,B,]2 [B,,B,][B,,F,] [B,,F,]2 [C,F,][D,F,] | %2
 [E,G,E]2 [E,G,E][F,E] [B,,F,]3 [B,,B,] | [F,A,F]2 [F,CF][F,A,F] [F,F]-[F,B,F][F,A,F]B,, | %4
 [C,C]2 [C,B,]>[F,A,] [F,A,]3 [F,A,] | [B,,B,]2 [B,,F,]>[B,,B,] [B,,B,]2 [B,,F,][B,,F,] | %6
 z4 z2 .A,2 | [F,CF]2 [F,CE][F,CE] [B,,B,]2 [B,,F,][B,,F,] |[M:7/8] [E,G,E]2 [F,D] [F,C] [B,,F,]3 | %9
[M:1/4] B,C |[M:4/4] D2 [B,,B,][D,B,] [F,A,]2 [F,CE][F,CE] | %11
 [B,,B,]2 [B,,F,][B,,F,] [E,G,]2 [E,B,E][E,B,E] | [B,,B,]2 [B,,F,][B,,B,] [D,B,]2 [B,,B,]>[B,,B,] | %13
 [F,A,F]6 DE | F2 B,[K:bass]B, B,2 [F,A,E][G,B,D] | %15
[M:9/8] [E,B,]2 [E,B,] [E,A,] [E,G,]2- [E,G,][E,B,][E,B,E] | %16
[M:4/4] [F,B,D]2 [F,B,D][F,B,F] [F,A,E]2 [F,D][F,C] |[M:7/8] [B,,F,]-[B,,F,]-[B,,F,]- [B,,F,]3 z |] %18
V:3
 x8 | x8 | x8 | z4 .A,2 z2 | x8 | x8 | [B,,B,]2 [E,B,][C,F,] [B,,F,]2 [F,F]-[F,B,F] | x8 | %8
[M:7/8] x7 |[M:1/4] x2 |[M:4/4] x8 | x8 | x8 | x8 | x3[K:bass] x5 |[M:9/8] x9 |[M:4/4] x8 | %17
[M:7/8] x7 |] %18
V:4
 x8 | x8 | x8 | x8 | x8 | x8 | x8 | x8 |[M:7/8] x7 |[M:1/4] x2 |[M:4/4] z2 DD C2 GA | D2 z2 z4 | %12
 x8 | x8 | z2 FF F2 cB |[M:9/8] G2 G G B2- B[GB]G |[M:4/4] x8 |[M:7/8] x7 |] %18

